outputs/icons/action/delete_forever_round.svg

<svg xmlns="http://www.w3.org/2000/svg" width="1200" height="1200" fill="none"><g clip-path="url(#a)"><path fill="#000" d="M300 950c0 55 45 100 100 100h400c55 0 100-45 100-100V350H300zm158.5-320.5c-19.5-19.5-19.5-51 0-70.5s51-19.5 70.5 0l71 70.5 70.5-70.5c19.5-19.5 51-19.5 70.5 0s19.5 51 0 70.5L670.5 700l70.5 70.5c19.5 19.5 19.5 51 0 70.5s-51 19.5-70.5 0L600 770.5 529.5 841c-19.5 19.5-51 19.5-70.5 0s-19.5-51 0-70.5l70.5-70.5zM900 200H775l-35.5-35.5c-9-9-22-14.5-35-14.5h-209c-13 0-26 5.5-35 14.5L425 200H300c-27.5 0-50 22.5-50 50s22.5 50 50 50h600c27.5 0 50-22.5 50-50s-22.5-50-50-50"/></g><defs><clipPath id="a"><path fill="#fff" d="M0 0h1200v1200H0z"/></clipPath></defs></svg>

<svg width="1200" height="1200" viewBox="0 0 1200 1200" fill="none" xmlns="http://www.w3.org/2000/svg"><g clip-path="url(#clip0_223_1916)"><path d="M300 950C300 1005 345 1050 400 1050H800C855 1050 900 1005 900 950V350H300V950ZM458.5 629.5C439 610 439 578.5 458.5 559C478 539.5 509.5 539.5 529 559L600 629.5L670.5 559C690 539.5 721.5 539.5 741 559C760.5 578.5 760.5 610 741 629.5L670.5 700L741 770.5C760.5 790 760.5 821.5 741 841C721.5 860.5 690 860.5 670.5 841L600 770.5L529.5 841C510 860.5 478.5 860.5 459 841C439.5 821.5 439.5 790 459 770.5L529.5 700L458.5 629.5ZM900 200H775L739.5 164.5C730.5 155.5 717.5 150 704.5 150H495.5C482.5 150 469.5 155.5 460.5 164.5L425 200H300C272.5 200 250 222.5 250 250C250 277.5 272.5 300 300 300H900C927.5 300 950 277.5 950 250C950 222.5 927.5 200 900 200Z" fill="black"/></g><defs><clipPath id="clip0_223_1916"><path width="24" fill="white" d="M0 0H1200V1200H0V0z"/></clipPath></defs></svg>
